Sources/FrostedUI/Resources/Icons.xcassets/code16.imageset/code-16.svg

<svg width="16" height="16" viewBox="0 0 16 16" fill="none" xmlns="http://www.w3.org/2000/svg" data-fui-icon="true">
  <path
    d="M8.77661 2.30255C8.88567 1.90305 9.29796 1.66723 9.69751 1.77618C10.0969 1.88521 10.3326 2.29762 10.2239 2.69708L7.22388 13.6971C7.11492 14.0966 6.70249 14.3322 6.30298 14.2234C5.90338 14.1145 5.66764 13.7022 5.77661 13.3026L8.77661 2.30255ZM3.28735 4.65216C3.57113 4.35105 4.04539 4.33664 4.34692 4.61993C4.64852 4.90379 4.66293 5.37884 4.37915 5.68048L2.57251 7.6004C2.36159 7.82488 2.36165 8.17472 2.57251 8.39923L4.37915 10.3192C4.663 10.6207 4.64845 11.0958 4.34692 11.3797C4.04536 11.6631 3.57114 11.6487 3.28735 11.3475L1.48071 9.42755C0.725791 8.62536 0.725739 7.37424 1.48071 6.57208L3.28735 4.65216ZM11.6526 4.61993C11.9542 4.33635 12.4293 4.3507 12.7131 4.65216L14.5198 6.57208C15.2744 7.37416 15.2744 8.62543 14.5198 9.42755L12.7131 11.3475C12.4293 11.649 11.9542 11.6634 11.6526 11.3797C11.3511 11.0958 11.3366 10.6208 11.6204 10.3192L13.427 8.39923C13.6381 8.17466 13.6382 7.82494 13.427 7.6004L11.6204 5.68048C11.3366 5.37884 11.351 4.90377 11.6526 4.61993Z"
    fill="currentColor"
  />
</svg>

<svg xmlns="http://www.w3.org/2000/svg" width="16" height="16" fill="none" data-fui-icon="true" viewBox="0 0 16 16"><path fill="currentColor" d="M8.777 2.303a.75.75 0 0 1 1.447.394l-3 11a.75.75 0 0 1-1.447-.394zm-5.49 2.35A.75.75 0 0 1 4.38 5.68L2.573 7.6a.583.583 0 0 0 0 .8l1.806 1.92a.75.75 0 0 1-1.092 1.027l-1.806-1.92a2.083 2.083 0 0 1 0-2.855zm8.366-.033a.75.75 0 0 1 1.06.032l1.807 1.92a2.084 2.084 0 0 1 0 2.856l-1.807 1.92a.75.75 0 0 1-1.093-1.029l1.807-1.92a.583.583 0 0 0 0-.799L11.62 5.68a.75.75 0 0 1 .033-1.06"/></svg>
